icons/1_Primary/Render.svg

<svg width="1024" height="1024" viewBox="0 0 1024 1024" fill="none" xmlns="http://www.w3.org/2000/svg">
<g clip-path="url(#clip0_2_3324)">
<path d="M512 1024C794.77 1024 1024 794.77 1024 512C1024 229.23 794.77 0 512 0C229.23 0 0 229.23 0 512C0 794.77 229.23 1024 512 1024Z" fill="#96DFD3"/>
<path d="M589.49 273.66H583.91V336.38H646.91V273.66H589.49ZM422.79 273.66C403.203 273.651 383.806 277.502 365.708 284.994C347.61 292.486 331.165 303.471 317.315 317.322C303.466 331.173 292.481 347.618 284.991 365.717C277.5 383.815 273.65 403.213 273.66 422.8V646.92H336.66V422C337.758 399.542 347.247 378.314 363.249 362.518C379.251 346.721 400.6 337.508 423.07 336.7H543.5V273.7H422.8L422.79 273.66ZM692.91 480.5H687.33V543.5H750.33V480.5H692.91ZM692.91 377.08H687.33V440.08H750.33V377.08H692.91ZM744.76 273.66H687.34V336.38H750.34V273.66H744.76ZM692.91 583.92H687.33V646.92H750.33V583.92H692.91ZM692.91 687.34H687.33V750.34H750.33V687.34H692.91ZM589.49 687.34H583.91V750.34H646.91V687.34H589.49ZM486.07 687.34H480.5V750.34H543.5V687.34H486.08H486.07ZM382.65 687.34H377.07V750.34H440.07V687.34H382.66H382.65ZM279.23 687.34H273.65V750.34H336.37V687.34H279.24H279.23Z" fill="white"/>
</g>
<defs>
<clipPath id="clip0_2_3324">
<rect width="1024" height="1024" fill="white"/>
</clipPath>
</defs>
</svg>

<svg xmlns="http://www.w3.org/2000/svg" width="1024" height="1024" fill="none">
   <g clip-path="url(#a)">
      <path fill="#96DFD3" d="M512 1024c282.77 0 512-229.23 512-512S794.77 0 512 0 0 229.23 0 512s229.23 512 512 512Z"/>
      <path fill="#fff" d="M589.49 273.66h-5.58v62.72h63v-62.72h-57.42Zm-166.7 0A149.058 149.058 0 0 0 273.66 422.8v224.12h63V422a89.739 89.739 0 0 1 86.41-85.3H543.5v-63H422.8l-.01-.04ZM692.91 480.5h-5.58v63h63v-63h-57.42Zm0-103.42h-5.58v63h63v-63h-57.42Zm51.85-103.42h-57.42v62.72h63v-62.72h-5.58Zm-51.85 310.26h-5.58v63h63v-63h-57.42Zm0 103.42h-5.58v63h63v-63h-57.42Zm-103.42 0h-5.58v63h63v-63h-57.42Zm-103.42 0h-5.57v63h63v-63h-57.43Zm-103.42 0h-5.58v63h63v-63h-57.42Zm-103.42 0h-5.58v63h62.72v-63h-57.14Z"/>
   </g>
   <defs>
      <clipPath id="a">
         <path fill="#fff" d="M0 0h1024v1024H0z"/>
      </clipPath>
   </defs>
</svg>
